images/icons/whatsapp.svg

<svg fill="none" height="24" viewBox="0 0 24 24" width="24" xmlns="http://www.w3.org/2000/svg" xmlns:xlink="http://www.w3.org/1999/xlink"><linearGradient id="a" gradientUnits="userSpaceOnUse" x1="11.9968" x2="11.9968" y1="23.5737" y2=".425537"><stop offset="0" stop-color="#20b038"/><stop offset="1" stop-color="#60d66a"/></linearGradient><linearGradient id="b" gradientUnits="userSpaceOnUse" x1="11.9968" x2="11.9968" y1="23.9889" y2=".010254"><stop offset="0" stop-color="#f9f9f9"/><stop offset="1" stop-color="#fff"/></linearGradient><clipPath id="c"><path d="m0 0h24v24h-24z"/></clipPath><g clip-path="url(#c)"><path d="m.0615234 23.9889 1.6863166-6.1578c-1.043128-1.8058-1.591572-3.8547-1.590001-5.94 0-6.55269 5.334471-11.880846 11.886361-11.880846 1.5615-.0002075 3.1077.307239 4.5503.904778 1.4427.597538 2.7535 1.473448 3.8575 2.577708s1.9797 2.41522 2.577 3.85799c.5972 1.44274.9044 2.98907.9038 4.55057 0 6.5526-5.3352 11.8816-11.8855 11.8816h-.0055c-1.9843-.0002-3.93681-.4975-5.67949-1.4463zm6.5928966-3.8036.36079.2139c1.52226.9016 3.25899 1.3772 5.02819 1.3769 5.4473 0 9.8763-4.4306 9.8786-9.8756.0009-2.61945-1.0385-5.13201-2.8897-6.98536-1.851-1.85334-4.3624-2.89575-6.9818-2.89804-5.4474 0-9.88029 4.42973-9.88266 9.8747-.0029 1.8596.52071 3.682 1.51026 5.2564l.23684.3734-.99947 3.6442z" fill="#fff"/><path d="m.473633 23.5737 1.627897-5.9439c-1.00587-1.7437-1.534155-3.7218-1.531581-5.7348 0-6.32447 5.149741-11.469463 11.474251-11.469463 1.5071 0 2.9996.296946 4.392.873873 1.3924.57693 2.6576 1.42254 3.7231 2.48852 1.0656 1.06598 1.9106 2.33145 2.487 3.72411.5763 1.39263.8727 2.88516.8721 4.39246 0 6.3245-5.1498 11.4703-11.4735 11.4703h-.0055c-1.9152-.0004-3.79987-.4803-5.48208-1.3958z" fill="url(#a)"/><path d="m.0615234 23.9889 1.6863166-6.1578c-1.043128-1.8058-1.591572-3.8547-1.590001-5.94 0-6.55269 5.334471-11.880846 11.886361-11.880846 1.5615-.0002075 3.1077.307239 4.5503.904778 1.4427.597538 2.7535 1.473448 3.8575 2.577708s1.9797 2.41522 2.577 3.85799c.5972 1.44274.9044 2.98907.9038 4.55057 0 6.5526-5.3352 11.8816-11.8855 11.8816h-.0055c-1.9843-.0002-3.93681-.4975-5.67949-1.4463zm6.5928966-3.8036.36079.2139c1.52226.9016 3.25899 1.3772 5.02819 1.3769 5.4473 0 9.8763-4.4306 9.8786-9.8756.0009-2.61945-1.0385-5.13201-2.8897-6.98536-1.851-1.85334-4.3624-2.89575-6.9818-2.89804-5.4474 0-9.88029 4.42973-9.88266 9.8747-.0029 1.8596.52071 3.682 1.51026 5.2564l.23684.3734-.99947 3.6442z" fill="url(#b)"/><path clip-rule="evenodd" d="m9.07898 6.92456c-.22263-.495-.45711-.50447-.66868-.51316-.1729-.0071-.37106-.0071-.56921-.0071-.15009.00432-.29768.03957-.43353.10355-.13584.06398-.25702.15532-.35594.26829-.27632.29684-1.04369 1.01526-1.04369 2.47657 0 1.46129 1.06422 2.87289 1.21264 3.07189.14842.1989 2.05262 3.2921 5.07313 4.4826 2.5082.9892 3.019.7895 3.5637.7429s1.7566-.7184 2.0045-1.4116.2471-1.2884.1729-1.4124c-.0742-.1239-.2724-.1981-.5692-.3465-.2969-.1485-1.7566-.8685-2.029-.9664s-.4737-.1484-.6687.1492c-.195.2977-.7666.9656-.9402 1.1637-.1737.1982-.3458.2235-.6435.075-.2976-.1484-1.2529-.4626-2.3881-1.4739-.88265-.7895-1.4787-1.7598-1.65238-2.0566-.17369-.2968-.01816-.4579.13105-.6063.13342-.1326.29684-.3466.44526-.5203.12205-.14997.222-.31671.29687-.49497.0394-.08195.0578-.1725.0534-.26337-.0043-.09087-.0314-.17913-.07869-.2569-.07421-.14842-.65131-1.61683-.91263-2.2042z" fill="#fff" fill-rule="evenodd"/></g></svg>

<svg width="24" height="24" viewBox="0 0 24 24" fill="none" xmlns="http://www.w3.org/2000/svg">
<g clip-path="url(#clip0_1432_8816)">
<path d="M0.0615234 23.9889L1.74784 17.8311C0.704712 16.0253 0.156268 13.9764 0.157839 11.8911C0.157839 5.33841 5.49231 0.010254 12.0442 0.010254C13.6057 0.0100465 15.1519 0.317493 16.5945 0.915032C18.0372 1.51257 19.348 2.38848 20.452 3.49274C21.556 4.597 22.4317 5.90796 23.029 7.35073C23.6262 8.79347 23.9334 10.3398 23.9328 11.9013C23.9328 18.4539 18.5976 23.7829 12.0473 23.7829H12.0418C10.0575 23.7827 8.10499 23.2854 6.36231 22.3366L0.0615234 23.9889ZM6.65442 20.1853L7.01521 20.3992C8.53747 21.3008 10.2742 21.7764 12.0434 21.7761C17.4907 21.7761 21.9197 17.3455 21.922 11.9005C21.9229 9.28105 20.8835 6.76849 19.0323 4.91514C17.1813 3.0618 14.6699 2.01939 12.0505 2.0171C6.6031 2.0171 2.17021 6.44683 2.16784 11.8918C2.16494 13.7514 2.68855 15.5738 3.6781 17.1482L3.91494 17.5216L2.91547 21.1658L6.65442 20.1853Z" fill="white"/>
<path d="M0.473633 23.5737L2.10153 17.6298C1.09566 15.8861 0.567375 13.908 0.569949 11.895C0.569949 5.57053 5.71969 0.425537 12.0442 0.425537C13.5513 0.425537 15.0438 0.722483 16.4362 1.29941C17.8286 1.87634 19.0938 2.72195 20.1593 3.78793C21.2249 4.85391 22.0699 6.11938 22.6463 7.51204C23.2226 8.90467 23.519 10.3972 23.5184 11.9045C23.5184 18.229 18.3686 23.3748 12.0449 23.3748H12.0394C10.1242 23.3744 8.23953 22.8945 6.55732 21.979L0.473633 23.5737Z" fill="url(#paint0_linear_1432_8816)"/>
<path d="M0.0615234 23.9889L1.74784 17.8311C0.704712 16.0253 0.156268 13.9764 0.157839 11.8911C0.157839 5.33841 5.49231 0.010254 12.0442 0.010254C13.6057 0.0100465 15.1519 0.317493 16.5945 0.915032C18.0372 1.51257 19.348 2.38848 20.452 3.49274C21.556 4.597 22.4317 5.90796 23.029 7.35073C23.6262 8.79347 23.9334 10.3398 23.9328 11.9013C23.9328 18.4539 18.5976 23.7829 12.0473 23.7829H12.0418C10.0575 23.7827 8.10499 23.2854 6.36231 22.3366L0.0615234 23.9889ZM6.65442 20.1853L7.01521 20.3992C8.53747 21.3008 10.2742 21.7764 12.0434 21.7761C17.4907 21.7761 21.9197 17.3455 21.922 11.9005C21.9229 9.28105 20.8835 6.76849 19.0323 4.91514C17.1813 3.0618 14.6699 2.01939 12.0505 2.0171C6.6031 2.0171 2.17021 6.44683 2.16784 11.8918C2.16494 13.7514 2.68855 15.5738 3.6781 17.1482L3.91494 17.5216L2.91547 21.1658L6.65442 20.1853Z" fill="url(#paint1_linear_1432_8816)"/>
<path fill-rule="evenodd" clip-rule="evenodd" d="M9.07898 6.92456C8.85635 6.42956 8.62187 6.42009 8.4103 6.4114C8.2374 6.4043 8.03924 6.4043 7.84109 6.4043C7.691 6.40862 7.54341 6.44387 7.40756 6.50785C7.27172 6.57183 7.15054 6.66317 7.05162 6.77614C6.7753 7.07298 6.00793 7.7914 6.00793 9.25271C6.00793 10.714 7.07215 12.1256 7.22057 12.3246C7.36899 12.5235 9.27319 15.6167 12.2937 16.8072C14.8019 17.7964 15.3127 17.5967 15.8574 17.5501C16.4021 17.5035 17.614 16.8317 17.8619 16.1385C18.1098 15.4453 18.109 14.8501 18.0348 14.7261C17.9606 14.6022 17.7624 14.528 17.4656 14.3796C17.1687 14.2311 15.709 13.5111 15.4366 13.4132C15.1642 13.3153 14.9629 13.2648 14.7679 13.5624C14.5729 13.8601 14.0013 14.528 13.8277 14.7261C13.654 14.9243 13.4819 14.9496 13.1842 14.8011C12.8866 14.6527 11.9313 14.3385 10.7961 13.3272C9.91345 12.5377 9.3174 11.5674 9.14372 11.2706C8.97003 10.9738 9.12556 10.8127 9.27477 10.6643C9.40819 10.5317 9.57161 10.3177 9.72003 10.144C9.84208 9.99403 9.94203 9.82729 10.0169 9.64903C10.0563 9.56708 10.0747 9.47653 10.0703 9.38566C10.066 9.29479 10.0389 9.20653 9.99161 9.12876C9.9174 8.98034 9.3403 7.51193 9.07898 6.92456Z" fill="white"/>
</g>
<defs>
<linearGradient id="paint0_linear_1432_8816" x1="11.9968" y1="23.5737" x2="11.9968" y2="0.425537" gradientUnits="userSpaceOnUse">
<stop stop-color="#20B038"/>
<stop offset="1" stop-color="#60D66A"/>
</linearGradient>
<linearGradient id="paint1_linear_1432_8816" x1="11.9968" y1="23.9889" x2="11.9968" y2="0.0102539" gradientUnits="userSpaceOnUse">
<stop stop-color="#F9F9F9"/>
<stop offset="1" stop-color="white"/>
</linearGradient>
<clipPath id="clip0_1432_8816">
<rect width="24" height="24" fill="white"/>
</clipPath>
</defs>
</svg>
